X:1
T:The Entertainer
C:Scott Joplin
M:2/4
L:1/4
Q:1/4=100
K:C
D/ E/ C/ E/ | D2 | G/ E/ D/ C/ | D2 | D/ E/ C/ E/ | d/ c/ _B/ A/ | G/ E/ C/ D/ | C2 |
D/ E/ C/ E/ | D2 | G/ E/ D/ C/ | D2 | D/ E/ C/ E/ | d/ c/ _B/ A/ | G/ E/ F/ G/ | c2 |]
